public/assets/images/brand/06.svg

<svg width="90" height="22" viewBox="0 0 90 22" fill="none" xmlns="http://www.w3.org/2000/svg">
<g clip-path="url(#clip0_21_47)">
<path fill-rule="evenodd" clip-rule="evenodd" d="M21.1365 20.1952H16.1459L14.6192 16.5904H6.30147L4.91168 20.1952H0L7.50176 1.97495H12.8767L21.1365 20.1952ZM10.255 6.3276L7.52808 13.4084H13.2557L10.255 6.3276ZM39.2671 1.97495H43.3049V20.1952H38.6669V8.81336L33.65 14.5327H32.9393L27.9223 8.81336V20.1952H23.2844V1.97495H27.3222L33.2973 8.736L39.2671 1.97495ZM55.055 1.97495C61.8461 1.97495 65.3363 6.11616 65.3363 11.1135C65.3363 16.348 61.9513 20.1952 54.5338 20.1952H46.8425V1.97495H55.055ZM51.4805 16.8534H54.5075C59.1717 16.8534 60.5615 13.7539 60.5615 11.0825C60.5615 7.95727 58.8453 5.31164 54.4496 5.31164H51.4752L51.4805 16.8534ZM84.0723 6.22962H74.5438L68.7529 0.525786L90 0.5V21.3453L84.0723 15.5125V6.22962ZM74.5385 15.693L74.5648 7.27137L68.5318 13.1815V21.5H77.2602L83.1879 15.693H74.5385Z" fill="#050D20"/>
</g>
<defs>
<clipPath id="clip0_21_47">
<rect width="90" height="21" fill="white" transform="translate(0 0.5)"/>
</clipPath>
</defs>
</svg>

<svg xmlns="http://www.w3.org/2000/svg" width="90" height="22" fill="none" viewBox="0 0 90 22"><g clip-path="url(#a)"><path fill="#050d20" fill-rule="evenodd" d="M21.137 20.195h-4.991l-1.527-3.605H6.301l-1.39 3.605H0l7.502-18.22h5.375zM10.255 6.328l-2.727 7.08h5.728zm29.012-4.353h4.038v18.22h-4.638V8.813l-5.017 5.72h-.71l-5.018-5.72v11.382h-4.638V1.975h4.038l5.975 6.761zm15.788 0c6.791 0 10.281 4.141 10.281 9.139 0 5.234-3.385 9.081-10.802 9.081h-7.691V1.975zM51.48 16.853h3.028c4.664 0 6.054-3.1 6.054-5.77 0-3.126-1.717-5.771-6.112-5.771h-2.975zM84.072 6.23h-9.528L68.753.526 90 .5v20.845l-5.928-5.832zm-9.534 9.463.027-8.422-6.033 5.91V21.5h8.728l5.928-5.807z" clip-rule="evenodd"/></g><defs><clipPath id="a"><path fill="#fff" d="M0 .5h90v21H0z"/></clipPath></defs></svg>
